icon-themes/breeze_svg/cmd/lc_graftransparence.svg

<svg height="24" viewBox="0 0 24 24" width="24" xmlns="http://www.w3.org/2000/svg" xmlns:xlink="http://www.w3.org/1999/xlink"><linearGradient id="a" gradientUnits="userSpaceOnUse" x1="6" x2="18" y1="20.00003" y2="8.00003"><stop offset="0" stop-color="#1d99f3"/><stop offset=".41666669" stop-color="#48acf5" stop-opacity=".761194"/><stop offset=".66666329" stop-color="#73c0f7" stop-opacity="0"/><stop offset="1" stop-color="#cae7fc" stop-opacity="0"/></linearGradient><g transform="translate(1)"><path d="m11 4c-.972907 3.405-3.356399 6.344-4.40625 8.6875-.367404.6968-.59375 1.4671-.59375 2.3125 0 2.77 2.229998 5 5 5s5-2.23 5-5c0-.8454-.226346-1.6157-.59375-2.3125-1.04985-2.3435-3.433353-5.2825-4.40625-8.6875z" fill="#b3b3b3"/><path d="m11 4c-.299464 1.0480708-.732028 2.0440062-1.21875 3h1.21875zm0 3v4h3.5c-.704565-1.2135733-1.545098-2.5540901-2.28125-4zm0 4h-3.5c-.16698.287614-.3540321.570094-.5.84375v3.15625h4zm0 4v4h3c .381284-.285502.714498-.618716 1-1v-3z" fill="#777"/><path d="m11 4c-.972907 3.405-3.356399 6.344-4.40625 8.6875-.367404.6968-.59375 1.4671-.59375 2.3125 0 2.77 2.229998 5 5 5s5-2.23 5-5c0-.8454-.226346-1.6157-.59375-2.3125-1.04985-2.3435-3.433353-5.2825-4.40625-8.6875z" fill="url(#a)"/><path d="m11 4c-.972907 3.4050342-3.3563994 6.343996-4.40625 8.6875-.3674044.696771-.59375 1.46708-.59375 2.3125 0 2.770002 2.2299982 5 5 5 2.770002 0 5-2.229998 5-5 0-.84542-.226346-1.615729-.59375-2.3125-1.04985-2.343504-3.433353-5.2824658-4.40625-8.6875zm0 2c .77832 2.76658 2.69137 5.1584 3.53125 7.0625.155833.30015.261114.601048.34375.9375.03426.13949.07466.292415.09375.4375.0028.0198-.0025.0426 0 .0625.01675.145223.03125.287157.03125.4375.000328.02116 0 .04126 0 .0625-.0039.258995-.04467.505177-.09375.75-.0037.01991.004.0427 0 .0625-.05262.243957-.1253.493611-.21875.71875-.0038.0092.0039.02206 0 .03125-.09893.23383-.236542.447761-.375.65625-.005.0075.005.0238 0 .03125-.140081.208115-.29386.384878-.46875.5625-.185449.187767-.374118.351863-.59375.5-.638203.43718-1.419.6875-2.25.6875-.277498 0-.551469-.040309-.8125-.09375-.186321-.038145-.3555789-.093228-.53125-.15625-.0311223-.01124-.0629929-.019257-.09375-.03125-.0399432-.015508-.0857007-.014507-.125-.03125-.0640533-.027424-.1252192-.063093-.1875-.09375-.1093513-.053613-.2091015-.124458-.3125-.1875-.0714614-.043673-.1503151-.077007-.21875-.125-.018971-.013267-.0437732-.017663-.0625-.03125-.1786014-.129584-.3454242-.28071-.5-.4375-.1504234-.152579-.2816545-.324857-.40625-.5-.0119057-.008089-.0194359-.023039-.03125-.03125-.4545179-.659318-.71875-1.474323-.71875-2.34375 0-.6869.17483-1.30888.46875-1.875.83988-1.9041 2.75292-4.29592 3.53125-7.0625z" fill="#4d4d4d"/></g></svg>

<?xml version="1.0" encoding="UTF-8" standalone="no"?>
<!-- Created with Inkscape (http://www.inkscape.org/) -->

<svg
   xmlns:dc="http://purl.org/dc/elements/1.1/"
   xmlns:cc="http://creativecommons.org/ns#"
   xmlns:rdf="http://www.w3.org/1999/02/22-rdf-syntax-ns#"
   xmlns:svg="http://www.w3.org/2000/svg"
   xmlns="http://www.w3.org/2000/svg"
   xmlns:xlink="http://www.w3.org/1999/xlink"
   xmlns:sodipodi="http://sodipodi.sourceforge.net/DTD/sodipodi-0.dtd"
   xmlns:inkscape="http://www.inkscape.org/namespaces/inkscape"
   width="24"
   height="24"
   id="svg2"
   version="1.1"
   inkscape:version="0.48.4 r9939"
   viewBox="0 0 24 24"
   sodipodi:docname="lc_graftransparence.svg">
  <defs
     id="defs4">
    <linearGradient
       inkscape:collect="always"
       id="linearGradient4012">
      <stop
         style="stop-color:#1d99f3;stop-opacity:1"
         offset="0"
         id="stop4014" />
      <stop
         id="stop4016"
         offset="0.41666669"
         style="stop-color:#48acf5;stop-opacity:0.76119405" />
      <stop
         id="stop4018"
         offset="0.66666329"
         style="stop-color:#73c0f7;stop-opacity:0" />
      <stop
         style="stop-color:#cae7fc;stop-opacity:0"
         offset="1"
         id="stop4020" />
    </linearGradient>
    <inkscape:perspective
       sodipodi:type="inkscape:persp3d"
       inkscape:vp_x="0 : 12 : 1"
       inkscape:vp_y="0 : 1000 : 0"
       inkscape:vp_z="24 : 12 : 1"
       inkscape:persp3d-origin="12 : 8 : 1"
       id="perspective4090" />
    <linearGradient
       id="linearGradient4172-7"
       inkscape:collect="always">
      <stop
         id="stop4174-2"
         offset="0"
         style="stop-color:#1d99f3;stop-opacity:1" />
      <stop
         style="stop-color:#48acf5;stop-opacity:0.76119405"
         offset="0.41666669"
         id="stop4354" />
      <stop
         style="stop-color:#73c0f7;stop-opacity:0"
         offset="0.66666329"
         id="stop4344" />
      <stop
         id="stop4176-0"
         offset="1"
         style="stop-color:#cae7fc;stop-opacity:0" />
    </linearGradient>
    <linearGradient
       gradientTransform="matrix(0.75,0,0,0.75,1.7499999,269.34054)"
       gradientUnits="userSpaceOnUse"
       y2="1033.3622"
       x2="19"
       y1="1049.3622"
       x1="3"
       id="linearGradient4164"
       xlink:href="#linearGradient4172-7"
       inkscape:collect="always" />
    <linearGradient
       gradientTransform="matrix(0.75,0,0,0.75,1.7499999,269.34054)"
       gradientUnits="userSpaceOnUse"
       y2="1033.3622"
       x2="19"
       y1="1049.3622"
       x1="3"
       id="linearGradient4164-7"
       xlink:href="#linearGradient4172-7-7"
       inkscape:collect="always" />
    <linearGradient
       id="linearGradient4172-7-7"
       inkscape:collect="always">
      <stop
         id="stop4174-2-7"
         offset="0"
         style="stop-color:#1d99f3;stop-opacity:1" />
      <stop
         style="stop-color:#48acf5;stop-opacity:0.76119405"
         offset="0.41666669"
         id="stop4354-6" />
      <stop
         style="stop-color:#73c0f7;stop-opacity:0"
         offset="0.66666329"
         id="stop4344-1" />
      <stop
         id="stop4176-0-1"
         offset="1"
         style="stop-color:#cae7fc;stop-opacity:0" />
    </linearGradient>
    <linearGradient
       y2="1028.0288"
       x2="24.333334"
       y1="1049.3622"
       x1="3"
       gradientTransform="matrix(0.75,0,0,0.75,2.7499999,262.34058)"
       gradientUnits="userSpaceOnUse"
       id="linearGradient3983"
       xlink:href="#linearGradient4172-7-7"
       inkscape:collect="always" />
    <linearGradient
       inkscape:collect="always"
       xlink:href="#linearGradient4172-7-7"
       id="linearGradient4007"
       gradientUnits="userSpaceOnUse"
       gradientTransform="matrix(0.75,0,0,0.75,3.7499999,-767.02162)"
       x1="3"
       y1="1049.3622"
       x2="24.333334"
       y2="1028.0288" />
    <linearGradient
       inkscape:collect="always"
       xlink:href="#linearGradient4012"
       id="linearGradient4010"
       gradientUnits="userSpaceOnUse"
       gradientTransform="matrix(0.75,0,0,0.75,3.7499999,-767.02162)"
       x1="3"
       y1="1049.3622"
       x2="19"
       y2="1033.3622" />
    <linearGradient
       id="linearGradient4172-7-6"
       inkscape:collect="always">
      <stop
         id="stop4174-2-5"
         offset="0"
         style="stop-color:#1d99f3;stop-opacity:1" />
      <stop
         style="stop-color:#48acf5;stop-opacity:0.76119405"
         offset="0.41666669"
         id="stop4354-1" />
      <stop
         style="stop-color:#73c0f7;stop-opacity:0"
         offset="0.66666329"
         id="stop4344-9" />
      <stop
         id="stop4176-0-4"
         offset="1"
         style="stop-color:#cae7fc;stop-opacity:0" />
    </linearGradient>
    <linearGradient
       gradientTransform="matrix(0.75,0,0,0.75,3.7499999,-769.02166)"
       gradientUnits="userSpaceOnUse"
       y2="1033.3622"
       x2="19"
       y1="1049.3622"
       x1="3"
       id="linearGradient4164-76"
       xlink:href="#linearGradient4172-7-6"
       inkscape:collect="always" />
    <linearGradient
       inkscape:collect="always"
       xlink:href="#linearGradient4012"
       id="linearGradient4078"
       gradientUnits="userSpaceOnUse"
       gradientTransform="matrix(0.75,0,0,0.75,3.7499999,-767.02162)"
       x1="3"
       y1="1049.3622"
       x2="19"
       y2="1033.3622" />
  </defs>
  <sodipodi:namedview
     id="base"
     pagecolor="#ffffff"
     bordercolor="#666666"
     borderopacity="1.0"
     inkscape:pageopacity="0.0"
     inkscape:pageshadow="2"
     inkscape:zoom="22.627417"
     inkscape:cx="-0.826227"
     inkscape:cy="10.420584"
     inkscape:document-units="px"
     inkscape:current-layer="layer1"
     showgrid="true"
     inkscape:showpageshadow="false"
     units="px"
     inkscape:window-width="1868"
     inkscape:window-height="1060"
     inkscape:window-x="50"
     inkscape:window-y="-3"
     inkscape:window-maximized="1"
     showguides="true"
     fit-margin-top="0"
     fit-margin-left="0"
     fit-margin-right="0"
     fit-margin-bottom="0"
     inkscape:snap-bbox="true">
    <inkscape:grid
       type="xygrid"
       id="grid4120"
       originx="1px"
       originy="0.99998262px" />
    <sodipodi:guide
       position="3,21"
       orientation="18,0"
       id="guide4126" />
    <sodipodi:guide
       position="3,3"
       orientation="0,18"
       id="guide4128" />
    <sodipodi:guide
       position="21,3"
       orientation="-18,0"
       id="guide4130" />
    <sodipodi:guide
       position="21,21"
       orientation="0,-18"
       id="guide4132" />
    <sodipodi:guide
       position="4,20"
       orientation="16,0"
       id="guide4134" />
    <sodipodi:guide
       position="4,4"
       orientation="0,16"
       id="guide4136" />
    <sodipodi:guide
       position="20,4"
       orientation="-16,0"
       id="guide4138" />
    <sodipodi:guide
       position="20,20"
       orientation="0,-16"
       id="guide4140" />
    <sodipodi:guide
       position="20,14"
       orientation="-6,0"
       id="guide4199" />
    <sodipodi:guide
       position="20,20"
       orientation="0,-6.0000172"
       id="guide4201" />
  </sodipodi:namedview>
  <metadata
     id="metadata7">
    <rdf:RDF>
      <cc:Work
         rdf:about="">
        <dc:format>image/svg+xml</dc:format>
        <dc:type
           rdf:resource="http://purl.org/dc/dcmitype/StillImage" />
        <dc:title />
      </cc:Work>
    </rdf:RDF>
  </metadata>
  <g
     inkscape:label="Capa 1"
     inkscape:groupmode="layer"
     id="layer1"
     transform="translate(1,-1029.3622)">
    <g
       id="g4071"
       transform="translate(1,0)">
      <path
         id="rect4346"
         transform="translate(-1,1029.3622)"
         d="M 11,4 C 10.027093,7.405 7.643601,10.344 6.59375,12.6875 6.226346,13.3843 6,14.1546 6,15 c 0,2.77 2.229998,5 5,5 2.770002,0 5,-2.23 5,-5 0,-0.8454 -0.226346,-1.6157 -0.59375,-2.3125 C 14.3564,10.344 11.972897,7.405 11,4 z"
         style="fill:#b3b3b3;fill-opacity:1;stroke:none"
         inkscape:connector-curvature="0" />
      <path
         id="rect4352-0"
         transform="translate(-1,1029.3622)"
         d="M 11,4 C 10.700536,5.0480708 10.267972,6.0440062 9.78125,7 L 11,7 11,4 z m 0,3 0,4 3.5,0 C 13.795435,9.7864267 12.954902,8.4459099 12.21875,7 L 11,7 z m 0,4 -3.5,0 C 7.33302,11.287614 7.1459679,11.570094 7,11.84375 L 7,15 l 4,0 0,-4 z m 0,4 0,4 3,0 c 0.381284,-0.285502 0.714498,-0.618716 1,-1 l 0,-3 -4,0 z"
         style="fill:#777777;fill-opacity:1;stroke:none"
         inkscape:connector-curvature="0" />
      <path
         id="rect4156"
         transform="translate(-1,1029.3622)"
         d="M 11,4 C 10.027093,7.405 7.643601,10.344 6.59375,12.6875 6.226346,13.3843 6,14.1546 6,15 c 0,2.77 2.229998,5 5,5 2.770002,0 5,-2.23 5,-5 0,-0.8454 -0.226346,-1.6157 -0.59375,-2.3125 C 14.3564,10.344 11.972897,7.405 11,4 z"
         style="fill:url(#linearGradient4078);fill-opacity:1;stroke:none"
         inkscape:connector-curvature="0" />
      <g
         inkscape:label="Capa 1"
         id="layer1-0"
         transform="translate(-379.85714,490.28573)">
        <path
           id="rect4108"
           transform="translate(378.85714,539.07647)"
           d="M 11,4 C 10.027093,7.4050342 7.6436006,10.343996 6.59375,12.6875 6.2263456,13.384271 6,14.15458 6,15 c 0,2.770002 2.2299982,5 5,5 2.770002,0 5,-2.229998 5,-5 0,-0.84542 -0.226346,-1.615729 -0.59375,-2.3125 C 14.3564,10.343996 11.972897,7.4050342 11,4 z m 0,2 c 0.77832,2.76658 2.69137,5.1584 3.53125,7.0625 0.155833,0.30015 0.261114,0.601048 0.34375,0.9375 0.03426,0.13949 0.07466,0.292415 0.09375,0.4375 0.0028,0.0198 -0.0025,0.0426 0,0.0625 C 14.9855,14.645223 15,14.787157 15,14.9375 c 3.28e-4,0.02116 0,0.04126 0,0.0625 -0.0039,0.258995 -0.04467,0.505177 -0.09375,0.75 -0.0037,0.01991 0.004,0.0427 0,0.0625 -0.05262,0.243957 -0.1253,0.493611 -0.21875,0.71875 -0.0038,0.0092 0.0039,0.02206 0,0.03125 -0.09893,0.23383 -0.236542,0.447761 -0.375,0.65625 -0.005,0.0075 0.005,0.0238 0,0.03125 -0.140081,0.208115 -0.29386,0.384878 -0.46875,0.5625 -0.185449,0.187767 -0.374118,0.351863 -0.59375,0.5 C 12.611797,18.74968 11.831,19 11,19 10.722502,19 10.448531,18.959691 10.1875,18.90625 10.001179,18.868105 9.8319211,18.813022 9.65625,18.75 9.6251277,18.73876 9.5932571,18.730743 9.5625,18.71875 9.5225568,18.703242 9.4767993,18.704243 9.4375,18.6875 9.3734467,18.660076 9.3122808,18.624407 9.25,18.59375 9.1406487,18.540137 9.0408985,18.469292 8.9375,18.40625 8.8660386,18.362577 8.7871849,18.329243 8.71875,18.28125 8.699779,18.267983 8.6749768,18.263587 8.65625,18.25 8.4776486,18.120416 8.3108258,17.96929 8.15625,17.8125 8.0058266,17.659921 7.8745955,17.487643 7.75,17.3125 7.7380943,17.304411 7.7305641,17.289461 7.71875,17.28125 7.2642321,16.621932 7,15.806927 7,14.9375 7,14.2506 7.17483,13.62862 7.46875,13.0625 8.30863,11.1584 10.22167,8.76658 11,6 z"
           style="fill:#4d4d4d;fill-opacity:1;stroke:none"
           inkscape:connector-curvature="0" />
      </g>
    </g>
  </g>
</svg>
